X:1
T:Castle Forbes
T:Castle Forbes
T:Alexander Walker
C:Alexander Walker
L:1/8
M:4/4
K:Emin
V:1 treble 
V:1
 B | G<EB>D B,>EE>G | F>DA,<D F>GA<F | G<DB>D B,<EE>e | (3BdB A<F (EE) :| f | g>ef>d e<BB>c | %7
 d>BA<d F<DA>f | g>ef>d e<BB>e | (3BdB A<F (D2 E>)f | g>ef>d e<BB>c | d>BA>G (F/G/).A/.F/ D>F | %12
 E>GF>A G>BA>d | (3BdB A>F (E2 E) || %14

